X:18
T:Bewicks Hornpipe
R:hp 32
Z:P J Headford
M:4/4
L:1/8
Q:1/4=140
K:D
|:FG|A2A2 A2A2|BcdB A2FG|A2A2 A2A2|BAGF E2FG|
A2A2 A2A2|BcdB A2d2|cdef gece|d2d2 d2:|
|:de|f2f2 f2ef|gfed cBAG|FAdf gfed|efge f2e2|
f2f2 f2ef|gfed cBAG|FAdf gece|d2d2 d2:|]

